material/.icons/material/battery-unknown-bluetooth.svg

<svg xmlns="http://www.w3.org/2000/svg" viewBox="0 0 24 24"><path d="M5 2v2H3.33A1.33 1.33 0 002 5.33v15.33C2 21.4 2.6 22 3.33 22h9.34c.73 0 1.33-.6 1.33-1.34V5.33C14 4.59 13.4 4 12.67 4H11V2H5m3 4a4 4 0 014 4c0 .88-.36 1.68-.93 2.25l-.9.92c-.54.54-.92 1.01-1.08 1.83H7.05c.11-.9.51-1.72 1.12-2.33l1.24-1.26c.37-.36.59-.86.59-1.41a2 2 0 00-2-2 2 2 0 00-2 2H4a4 4 0 014-4m11 2v3.79L16.71 9.5l-.71.71L18.79 13 16 15.79l.71.71L19 14.21V18h.5l2.85-2.86L20.21 13l2.14-2.15L19.5 8H19m1 1.91l.94.94-.94.94V9.91m0 4.3l.94.93-.94.94v-1.87M7 17h2v2H7v-2z"/></svg>

<?xml version="1.0" encoding="UTF-8"?><!DOCTYPE svg PUBLIC "-//W3C//DTD SVG 1.1//EN" "http://www.w3.org/Graphics/SVG/1.1/DTD/svg11.dtd"><svg xmlns="http://www.w3.org/2000/svg" xmlns:xlink="http://www.w3.org/1999/xlink" version="1.1" id="mdi-battery-unknown-bluetooth" width="24" height="24" viewBox="0 0 24 24"><path d="M5,2V4H3.33A1.33,1.33 0 0,0 2,5.33V20.66C2,21.4 2.6,22 3.33,22H12.67C13.4,22 14,21.4 14,20.66V5.33C14,4.59 13.4,4 12.67,4H11V2H5M8,6A4,4 0 0,1 12,10C12,10.88 11.64,11.68 11.07,12.25L10.17,13.17C9.63,13.71 9.25,14.18 9.09,15H7.05C7.16,14.1 7.56,13.28 8.17,12.67L9.41,11.41C9.78,11.05 10,10.55 10,10C10,8.89 9.1,8 8,8A2,2 0 0,0 6,10H4A4,4 0 0,1 8,6M19,8V11.79L16.71,9.5L16,10.21L18.79,13L16,15.79L16.71,16.5L19,14.21V18H19.5L22.35,15.14L20.21,13L22.35,10.85L19.5,8H19M20,9.91L20.94,10.85L20,11.79V9.91M20,14.21L20.94,15.14L20,16.08V14.21M7,17H9V19H7V17Z" /></svg>
